!!!COA:	Josquin des Prez
!!!CDT:	~1450-1521/08/27
!!!OTL:	Ma bouche rit (&agrave; 5)
!!!AGN:	Chanson
!!!SCT:	NJE 29.14
!!!SCA:	New Josquin Edition 29.14
!!!voices:	5
**kern	**kern	**kern	**kern	**kern
*staff5	*staff4	*staff3	*staff2	*staff1
*Ivox	*Ivox	*Ivox	*Ivox	*Ivox
*I"Bassus	*I"Tenor	*I"Sextus	*I"Contratenor	*I"Superius
*I'B	*I'T	*I'Sx	*I'Ct	*I'S
*>[A,B]	*>[A,B]	*>[A,B]	*>[A,B]	*>[A,B]
*>A	*>A	*>A	*>A	*>A
*clefF4	*clefGv2	*clefGv2	*clefGv2	*clefG2
*k[]	*k[]	*k[]	*k[]	*k[]
*M2/1	*M2/1	*M2/1	*M2/1	*M2/1
*met(C|)	*met(C|)	*met(C|)	*met(C|)	*met(C|)
=1-	=1-	=1-	=1-	=1-
0r	1A	1A	1r	0a
.	2A/	1A	1A	.
.	2A/	.	.	.
=2	=2	=2	=2	=2
0r	1c	1A	1A	1e
.	2r	[1c	1A	1e
.	2A/	.	.	.
=3	=3	=3	=3	=3
0A	2A/	2c\]	1.c	1a
.	2A/	4B\	.	.
.	.	4A/	.	.
.	1e	2.c\	.	1a
.	.	.	4B\	.
.	.	4d\	4A/	.
=4	=4	=4	=4	=4
1E	0r	2.e\	2c\	1g
.	.	.	2B\	.
.	.	4d\	.	.
1E	.	2B\	1e	1g
.	.	[2c\	.	.
=5	=5	=5	=5	=5
1A	2r	4c\]	1r	1cc
.	.	4B\	.	.
.	2e\	4A/	.	.
.	.	4G/	.	.
1A	2e\	1A	1e	1cc
.	2e\	.	.	.
=6	=6	=6	=6	=6
2.G\	1g	1E	2.e\	1b
4F\	.	.	4d\	.
2E\	2G/	1r	2e\	2cc\
2D\	2A/	.	[2f\	[2dd\
=7	=7	=7	=7	=7
2G\	2B\	0r	4f\]	2dd\]
.	.	.	4e\	.
2A\	1c	.	1e	2cc\
1F	.	.	.	1a
.	4B\	.	2d\	.
.	4A/	.	.	.
=8	=8	=8	=8	=8
[0E	1G	2r	2e\	1b
.	.	2e\	2B\	.
.	2r	2e\	1c	1e
.	2e\	2e\	.	.
=9	=9	=9	=9	=9
0E]	2e\	2.g\	0B	1r
.	2e\	.	.	.
.	.	4f\	.	.
.	2g\	1e	.	1g
.	2e\	.	.	.
=10	=10	=10	=10	=10
0r	2f\	2d\	0r	1a
.	1a	2c\	.	.
.	.	1B	.	1b
.	2g#i\	.	.	.
=11	=11	=11	=11	=11
0A	1a	1A	2r	1.cc
.	.	.	2e\	.
.	2r	2r	2e\	.
.	2e\	2c\	2e\	4b\
.	.	.	.	4a/
=12	=12	=12	=12	=12
1E	2e\	2.B\	1g	1b
.	2e\	.	.	.
.	.	4A/	.	.
1E	1g	1B	1r	1e
=13	=13	=13	=13	=13
1A	2r	1A	2r	1e
.	2c\	.	2e\	.
2D\	4d\	1r	2f\	1d
.	4c\	.	.	.
[2G\	4B\	.	[2g\	.
.	4A/	.	.	.
=14	=14	=14	=14	=14
2G\]	2B\	1r	4g\]	1e
.	.	.	4f\	.
2A\	2c\	.	1e	.
1F	1A	2r	.	1f
.	.	2A/	2d\	.
=15	=15	=15	=15	=15
0E	0G	2B\	0e	1.g
.	.	4c\	.	.
.	.	4B\	.	.
.	.	4c\	.	.
.	.	4B\	.	.
.	.	[2e\	.	2e/
=16	=16	=16	=16	=16
1r	0r	2e\]	0r	1f
.	.	2d\	.	.
1E	.	1e	.	1e
=17	=17	=17	=17	=17
1.F	0r	0r	1c	1a
.	.	.	2.d\	2f/
2E\	.	.	.	[2g/
.	.	.	4c\	.
=18	=18	=18	=18	=18
2D\	0r	0r	2B\	2g/]
2C/	.	.	1A	2e/
1BB	.	.	.	1d
.	.	.	2G#i/	.
=19	=19	=19	=19	=19
1AA	2r	1r	0A	1c
.	2A/	.	.	.
1r	2A/	1e	.	1r
.	2A/	.	.	.
=20	=20	=20	=20	=20
0A	2.c\	1e	1r	1r
.	4d\	.	.	.
.	1e	1e	2r	1cc
.	.	.	2e\	.
=21	=21	=21	=21	=21
1E	1r	2.g\	2e\	1.b
.	.	.	2e\	.
.	.	4f\	.	.
1E	1B	4e\	2.g\	.
.	.	4d\	.	.
.	.	2e\	.	2g/
.	.	.	4f\	.
=22	=22	=22	=22	=22
1A	1.c	2r	4e\	1a
.	.	.	4d\	.
.	.	2e\	2e\	.
2r	.	2e\	1r	2g/
2A\	2c\	2e\	.	2a/
=23	=23	=23	=23	=23
2E\	1B	1g	2r	1b
2E\	.	.	2e\	.
1A	1A	1r	2e\	1cc
.	.	.	2e\	.
=24	=24	=24	=24	=24
1r	0r	2r	2.g\	2b\
.	.	2e\	.	1g
.	.	.	4f\	.
2r	.	2e\	2e\	.
2D\	.	[2f\	2d\	[2a/
=25	=25	=25	=25	=25
2E\	0r	4f\]	2.c\	2a/]
.	.	4e\	.	.
2E\	.	1e	.	1g
.	.	.	4B\	.
1F	.	.	1A	.
.	.	2d\	.	2f/
=26	=26	=26	=26	=26
[0E	2r	1e	1G	0g
.	2e\	.	.	.
.	2e\	1r	2r	.
.	2e\	.	2e\	.
=27	=27	=27	=27	=27
0E]	2.g\	2r	2e\	1r
.	.	2B\	2e\	.
.	4f\	.	.	.
.	4e\	2B\	2.g\	[1g
.	4d\	.	.	.
.	2e\	2B\	.	.
.	.	.	4f\	.
=28	=28	=28	=28	=28
1r	1r	1.c	4e\	1g]
.	.	.	4d\	.
.	.	.	2e\	.
1A	2r	.	1r	1a
.	2e\	2c\	.	.
=29	=29	=29	=29	=29
1E	2e\	2B\	0r	2g/
.	2e\	2A/	.	1cc
1E	1g	1B	.	.
.	.	.	.	2b\
=30	=30	=30	=30	=30
1A	2f\	1A	2r	1cc
.	2.e\	.	4e\	.
.	.	.	4f\	.
1r	.	1r	2g\	2b\
.	4d\	.	.	.
.	2c\	.	[2a\	2cc\
=31	=31	=31	=31	=31
1r	1B	1r	2a\]	1dd
.	.	.	2g#i\	.
2r	[1A	2A/	[1a	2cc\
2A\	.	2A/	.	[2a/
=32	=32	=32	=32	=32
2A\	1A]	2A/	1a]	2a/]
2A\	.	1c	.	4g/
.	.	.	.	4f/
1c	1r	.	1r	1e
.	.	2A/	.	.
=33	=33	=33	=33	=33
2B\	0r	2B\	0r	2d/
1A	.	2.c\	.	2f/
.	.	.	.	1e
.	.	4d\	.	.
2G\	.	[2e\	.	.
=34	=34	=34	=34	=34
1F	1r	2e\]	0r	2r
.	.	2d\	.	2a/
1E	2r	1e	.	2b\
.	2e\	.	.	2cc\
=35	=35	=35	=35	=35
0r	2.f\	0r	0r	2.dd\
.	4e\	.	.	4cc\
.	2d\	.	.	4b\
.	.	.	.	4a/
.	2c\	.	.	[2a/
=36	=36	=36	=36	=36
2r	1B	0r	2r	2a/]
2E\	.	.	2e\	2g#i/
2.F\	1A	.	2c\	[1a
.	.	.	4d\	.
4E\	.	.	4c\	.
=37	=37	=37	=37	=37
2D\	0r	0r	4B\	1a]
.	.	.	4A/	.
2C/	.	.	1A	.
1BB	.	.	.	1r
.	.	.	2G#i/	.
=38	=38	=38	=38	=38
1AA	1r	2r	0A	1r
.	.	2e\	.	.
1A	2r	2c\	.	1e
.	2e\	[2e\	.	.
=39	=39	=39	=39	=39
1E	2e\	4e\]	1r	2.g/
.	.	4d\	.	.
.	2e\	2c\	.	.
.	.	.	.	4a/
1E	1g	1B	2r	2b\
.	.	.	2e\	2b\
=40	=40	=40	=40	=40
1A	1r	1A	2e\	1cc
.	.	.	2e\	.
1r	2r	1r	2.g\	2b\
.	2e\	.	.	2cc\
.	.	.	4f\	.
=41	=41	=41	=41	=41
1r	2.f\	0r	2d\	2.dd\
.	.	.	1f	.
.	4e\	.	.	4cc\
2r	2d\	.	.	1a
2A\	2c\	.	[2e\	.
=42	=42	=42	=42	=42
2E\	1B	1r	4e\]	1g#i
.	.	.	4d\	.
2E\	.	.	2B\	.
1A	1A	2A/	2c\	[1a
.	.	2A/	2A/	.
=43	=43	=43	=43	=43
0r	1r	2A/	2A/	2a/]
.	.	2.c\	2A/	4g/
.	.	.	.	4f/
.	2r	.	1c	1e
.	.	4d\	.	.
.	2c\	4e\	.	.
.	.	4c\	.	.
=44	=44	=44	=44	=44
1r	2B\	2d\	0r	2d/
.	2G/	2B\	.	2e/
2r	1A	2c\	.	4f/
.	.	.	.	4e/
2A\	.	2A/	.	4d/
.	.	.	.	4c/
=45	=45	=45	=45	=45
2G\	1E	1B	1r	2B/
2E\	.	.	.	1e
1F	1r	1A	2r	.
.	.	.	2A/	2d/
=46	=46	=46	=46	=46
1E	1r	2r	2G/	[0el
.	.	2B\	2G/	.
1r	2r	2c\	1A	.
.	2A/	2A/	.	.
=47	=47	=47	=47	=47
1r	2B\	1B	1E	0e_
.	2B\	.	.	.
2r	1c	1A	2r	.
2A\	.	.	2c\	.
=48	=48	=48	=48	=48
2G\	1G	2r	2B\	0e_
2G\	.	2e\	2B\	.
1A	2r	2e\	1c	.
.	2c\	2e\	.	.
=49	=49	=49	=49	=49
1E	2B\	1g	2B\	0e_
.	2B\	.	2g\	.
2r	1c	2r	2g\	.
2A\	.	2c\	2g\	.
=50	=50	=50	=50	=50
2G\	1G	2B\	2g\	0e_
2G\	.	2B\	2e\	.
1A	2r	1c	2e\	.
.	2c\	.	2e\	.
=51	=51	=51	=51	=51
[0El	2B\	[0Bl	[0gl	0e_
.	2G/	.	.	.
.	2.B\	.	.	.
.	4G/	.	.	.
=52	=52	=52	=52	=52
0E]	0Gl	0B]	0g]	0e]
!!LO:LB:i:g=z
=53||	=53||	=53||	=53||	=53||
*>B	*>B	*>B	*>B	*>B
*clefF4	*clefGv2	*clefGv2	*clefGv2	*clefG2
*k[]	*k[]	*k[]	*k[]	*k[]
*M2/1	*M2/1	*M2/1	*M2/1	*M2/1
*met(C|)	*met(C|)	*met(C|)	*met(C|)	*met(C|)
!!section: Ma bouche rit
!!!OMD: Ma bouche rit
0r	1A	1A	1r	0r
.	1A	2A/	1e	.
.	.	2A/	.	.
=54	=54	=54	=54	=54
0A	1A	2c\	1e	0r
.	.	2A/	.	.
.	1c	2A/	1e	.
.	.	2A/	.	.
=55	=55	=55	=55	=55
1E	1r	1.e	1.g	0b
1E	1e	.	.	.
.	.	2d\	2f\	.
=56	=56	=56	=56	=56
0A	1e	2.c\	2.e\	1cc
.	.	4B\	4d\	.
.	1e	1A	1c	1cc
=57	=57	=57	=57	=57
0r	1.g	1G	2.B\	1dd
.	.	.	4G/	.
.	.	2r	1G	1dd
.	2f\	2d\	.	.
=58	=58	=58	=58	=58
0r	2.e\	2c\	2r	1g
.	.	2B\	2e\	.
.	4d\	.	.	.
.	1c	1A	2e\	1a
.	.	.	2e\	.
=59	=59	=59	=59	=59
1r	1B	1G	1g	1b
1A	1r	2r	2f\	2.cc\
.	.	2c\	[2e\	.
.	.	.	.	4b\
=60	=60	=60	=60	=60
1E	0r	2B\	4e\]	1g
.	.	.	4d\	.
.	.	2.e\	2c\	.
1E	.	.	1B	1r
.	.	4d\	.	.
.	.	2B\	.	.
=61	=61	=61	=61	=61
0A	2r	0c	1A	0a
.	2A/	.	.	.
.	2A/	.	2r	.
.	2A/	.	2A/	.
=62	=62	=62	=62	=62
2r	1c	2A/	2A/	1a
2A\	.	2A/	2A/	.
2A\	2r	2A/	1c	1a
2A\	2A/	[2c\	.	.
=63	=63	=63	=63	=63
1c	2A/	4c\]	0r	1.a
.	.	4d\	.	.
.	2A/	2e\	.	.
2r	1c	2A/	.	.
2A\	.	2A/	.	4g/
.	.	.	.	4f/
=64	=64	=64	=64	=64
2A\	1r	2A/	0r	1e
2A\	.	2.c\	.	.
1c	2r	.	.	1e
.	.	4d\	.	.
.	2A/	4e\	.	.
.	.	4c\	.	.
=65	=65	=65	=65	=65
2r	2B\	2d\	0r	1d
2B\	2d\	2G/	.	.
2A\	2c\	2c\	.	1e
2G\	[2e\	2B\	.	.
=66	=66	=66	=66	=66
1F	2e\]	1A	1r	1f
.	2d\	.	.	.
[1E	1e	1G	2r	1g
.	.	.	2E/	.
=67	=67	=67	=67	=67
2E\]	1r	2r	2E/	2.e/
2AA/	.	2A/	2E/	.
.	.	.	.	4c/
1AA	2r	2A/	1A	1c
.	2A/	2A/	.	.
=68	=68	=68	=68	=68
0r	2A/	1.c	0r	2e/
.	2A/	.	.	2f/
.	1e	.	.	1g
.	.	2B\	.	.
=69	=69	=69	=69	=69
0r	1r	2.A/	2r	2e/
.	.	.	2A/	1f
.	.	4G/	.	.
.	2r	1F	2A/	.
.	2a\	.	2A/	2d/
=70	=70	=70	=70	=70
1r	2g\	2E/	1c	1e
.	2e\	2A/	.	.
1A	1f	2A/	2r	1A
.	.	2A/	2A/	.
=71	=71	=71	=71	=71
1A	[0e	1c	2A/	1r
.	.	.	2A/	.
1A	.	2r	2.c\	[1cc
.	.	2A/	.	.
.	.	.	4d\	.
=72	=72	=72	=72	=72
1.c	0e]	2A/	2e\	1cc]
.	.	2A/	4c\	.
.	.	.	4d\	.
.	.	1c	4e\	1cc
.	.	.	4f\	.
2B\	.	.	[2g\	.
=73	=73	=73	=73	=73
1A	1r	2r	4g\]	1cc
.	.	.	4f\	.
.	.	2A/	4f\	.
.	.	.	4e\	.
1G	1E	2B\	2g\	1b
.	.	2G/	[2e\	.
=74	=74	=74	=74	=74
2.F\	1A	1.A	4e\]	2cc\
.	.	.	4d\	.
.	.	.	2.f\	2.dd\
4E\	.	.	.	.
1F	1A	.	.	.
.	.	.	4c\	4cc\
.	.	4G/	2d\	4b\
.	.	4A/	.	4a/
=75	=75	=75	=75	=75
0E	1.G	2B\	0e	2.g/
.	.	2e\	.	.
.	.	.	.	4a/
.	.	2e\	.	2b\
.	2E/	2e\	.	[2cc\
=76	=76	=76	=76	=76
2r	0E	2.g\	2r	2cc\]
2E\	.	.	2g\	4b\
.	.	4f\	.	4a/
2.C/	.	2e\	2.g\	2cc\
.	.	2d\	.	[2b\
4D\	.	.	4f\	.
=77	=77	=77	=77	=77
2E\	0r	2c\	2e\	4b\]
.	.	.	.	4a/
2F\	.	2A/	2d\	1a
1E	.	1B	1e	.
.	.	.	.	2g#i/
=78	=78	=78	=78	=78
1AA	2r	[0Al	1c	[0al
.	2A/	.	.	.
2r	2A/	.	2r	.
2D\	2A/	.	2F/	.
=79	=79	=79	=79	=79
2C/	2c\	0A_	2E/	0a_
2C/	2A/	.	2E/	.
1D	2A/	.	1F	.
.	2A/	.	.	.
=80	=80	=80	=80	=80
1AA	1c	0A_	2E/	0a_
.	.	.	2A/	.
2r	2r	.	2A/	.
2D\	2F/	.	2A/	.
=81	=81	=81	=81	=81
2C/	2E/	0A_	2c\	0a_
2C/	2E/	.	2A/	.
1D	1F	.	2A/	.
.	.	.	2A/	.
=82	=82	=82	=82	=82
0AAl	0El	0A]	0cl	0a]
==	==	==	==	==
*-	*-	*-	*-	*-
!!!RDF**kern: l=long note in original notation
!!!RDF**kern: i=editorial accidental
!!!RDF**kern: V=start of tuplet marker
!!!RDF**kern: Z=end of tuplet marker
!!!ENC:	Will Watson 09/12/2011
!!!END:	2012/01/23/
!!!EED:	Jesse Rodin
!!!EEV:	2012/08/29/
!!attribution-level@Jos: 4 (questionable)
!!!ONB:	Translated from MusicXML and edited on 2012/08/29/ by Craig Sapp
!!muse2ps: C^@{COA}?\n@{SCT}^i2I150v85,85,85,85,130Q16
